utils/icons-generator/ic_action_search.svg

<?xml version="1.0" encoding="UTF-8"?>
<svg xmlns="http://www.w3.org/2000/svg" xmlns:xlink="http://www.w3.org/1999/xlink" width="1000pt" height="1000pt" viewBox="0 0 1000 1000" version="1.1">
<g id="surface1">
<path style=" stroke:none;fill-rule:nonzero;fill:rgb(0%,0%,0%);fill-opacity:1;" d="M 645.832031 583.332031 L 612.917969 583.332031 L 601.25 572.082031 C 642.082031 524.582031 666.667969 462.917969 666.667969 395.832031 C 666.667969 246.25 545.417969 125 395.832031 125 C 246.25 125 125 246.25 125 395.832031 C 125 545.417969 246.25 666.667969 395.832031 666.667969 C 462.917969 666.667969 524.582031 642.082031 572.082031 601.25 L 583.332031 612.917969 L 583.332031 645.832031 L 791.667969 853.75 L 853.75 791.667969 Z M 395.832031 583.332031 C 292.082031 583.332031 208.332031 499.582031 208.332031 395.832031 C 208.332031 292.082031 292.082031 208.332031 395.832031 208.332031 C 499.582031 208.332031 583.332031 292.082031 583.332031 395.832031 C 583.332031 499.582031 499.582031 583.332031 395.832031 583.332031 Z M 395.832031 583.332031 "/>
</g>
</svg>

<?xml version="1.0" encoding="UTF-8" standalone="no"?>
<svg
   xmlns:dc="http://purl.org/dc/elements/1.1/"
   xmlns:cc="http://creativecommons.org/ns#"
   xmlns:rdf="http://www.w3.org/1999/02/22-rdf-syntax-ns#"
   xmlns:svg="http://www.w3.org/2000/svg"
   xmlns="http://www.w3.org/2000/svg"
   xmlns:sodipodi="http://sodipodi.sourceforge.net/DTD/sodipodi-0.dtd"
   xmlns:inkscape="http://www.inkscape.org/namespaces/inkscape"
   width="1000pt"
   height="1000pt"
   viewBox="0 0 1000 1000"
   version="1.1"
   id="svg80"
   sodipodi:docname="ic_action_search.svg"
   inkscape:version="0.92.4 (5da689c313, 2019-01-14)">
  <metadata
     id="metadata86">
    <rdf:RDF>
      <cc:Work
         rdf:about="">
        <dc:format>image/svg+xml</dc:format>
        <dc:type
           rdf:resource="http://purl.org/dc/dcmitype/StillImage" />
      </cc:Work>
    </rdf:RDF>
  </metadata>
  <defs
     id="defs84" />
  <sodipodi:namedview
     pagecolor="#ffffff"
     bordercolor="#666666"
     borderopacity="1"
     objecttolerance="10"
     gridtolerance="10"
     guidetolerance="10"
     inkscape:pageopacity="0"
     inkscape:pageshadow="2"
     inkscape:window-width="2560"
     inkscape:window-height="1346"
     id="namedview82"
     showgrid="false"
     inkscape:zoom="0.177"
     inkscape:cx="666.66667"
     inkscape:cy="666.66667"
     inkscape:window-x="-11"
     inkscape:window-y="-11"
     inkscape:window-maximized="1"
     inkscape:current-layer="svg80" />
  <g
     id="surface1"
     transform="matrix(1.3687821,0,0,1.3687821,-180.47275,-180.47275)">
    <path
       style="fill:#000000;fill-opacity:1;fill-rule:nonzero;stroke:none"
       d="m 645.83203,583.33203 h -32.91406 l -11.66797,-11.25 c 40.83203,-47.5 65.41797,-109.16406 65.41797,-176.25 C 666.66797,246.25 545.41797,125 395.83203,125 246.25,125 125,246.25 125,395.83203 c 0,149.58594 121.25,270.83594 270.83203,270.83594 67.08594,0 128.75,-24.58594 176.25,-65.41797 l 11.25,11.66797 v 32.91406 L 791.66797,853.75 853.75,791.66797 Z m -250,0 c -103.75,0 -187.5,-83.75 -187.5,-187.5 0,-103.75 83.75,-187.5 187.5,-187.5 103.75,0 187.5,83.75 187.5,187.5 0,103.75 -83.75,187.5 -187.5,187.5 z m 0,0"
       id="path77"
       inkscape:connector-curvature="0" />
  </g>
</svg>
